; HEADER_BLOCK_START
; generated by OrcaSlicer 2.3.2 on 2026-05-10 at 00:35:50
; total layer number: 611
; filament_density: 1.2
; filament_diameter: 1.75
; max_z_height: 122.40
; filament: 1
; HEADER_BLOCK_END

; THUMBNAIL_BLOCK_START

;
; THUMBNAIL_BLOCK_END

; THUMBNAIL_BLOCK_START

;
; THUMBNAIL_BLOCK_END

; external perimeters extrusion width = 0.40mm
; perimeters extrusion width = 0.40mm
; infill extrusion width = 0.40mm
; solid infill extrusion width = 0.40mm
; top infill extrusion width = 0.40mm
; first layer extrusion width = 0.40mm

; EXECUTABLE_BLOCK_START
M73 P0 R59
M201 X500 Y500 Z100 E5000
M203 X250 Y250 Z10 E60
M204 P500 R1000 T500
M205 X8.00 Y8.00 Z0.40 E5.00 ; sets the jerk limits, mm/sec
;TYPE:Custom
G90 ; use absolute coordinates
M83 ; extruder relative mode
M140 S55 ; set final bed temp
M104 S150 ; set temporary nozzle temp to prevent oozing during homing
G4 S10 ; allow partial nozzle warmup
G28 ; home all axis
G1 Z50 F240
G1 X2 Y10 F3000
M104 S243 ; set final nozzle temp
M190 S55 ; wait for bed temp to stabilize
M109 S243 ; wait for nozzle temp to stabilize
G1 Z0.28 F240
G92 E0
G1 Y140 E10 F1500 ; prime the nozzle
G1 X2.3 F5000
G92 E0
G1 Y10 E10 F1200 ; prime the nozzle
G92 E0
G90
G21
M83 ; use relative distances for extrusion
; Filament gcode
M106 S0
;LAYER_CHANGE
;Z:0.2
;HEIGHT:0.2
;BEFORE_LAYER_CHANGE
;0.2
G92 E0

G1 Z.2 F30000
M73 P1 R59
;_SET_FAN_SPEED_CHANGING_LAYER
M204 S500
; printing object 左内翼70 id:0 copy 0
G1 E-5 F3600
G1 Z.6 F30000
G1 X108.562 Y79.415
G1 Z.2
G1 Z.2
G1 E5 F2400
;TYPE:Brim
;WIDTH:0.4
G1 F3000
G1 X109.46 Y78.266 E.02078
G1 X110.354 Y77.291 E.01885
G1 X111.318 Y76.386 E.01885
G1 X112.347 Y75.554 E.01886
G1 X113.115 Y75.011 E.0134
G1 X114.237 Y74.309 E.01887
G1 X115.408 Y73.694 E.01885
G1 X116.621 Y73.167 E.01885
G1 X117.871 Y72.733 E.01885
G1 X119.15 Y72.394 E.01886
G1 X120.136 Y72.2 E.01433
G1 X121.651 Y71.998 E.02177
G1 X122.971 Y71.928 E.01884
G1 X124.293 Y71.958 E.01885
G1 X125.61 Y72.085 E.01885
G1 X126.913 Y72.311 E.01886
G1 X128.021 Y72.584 E.01626
G1 X129.284 Y72.979 E.01886
G1 X130.513 Y73.467 E.01885
G1 X131.703 Y74.046 E.01885
G1 X132.846 Y74.713 E.01887
G1 X133.515 Y75.159 E.01146
G1 X134.683 Y76.038 E.02082
G1 X135.674 Y76.913 E.01884
G1 X136.597 Y77.86 E.01885
G1 X137.448 Y78.874 E.01886
G1 X138.005 Y79.631 E.01339
G1 X138.728 Y80.74 E.01887
G1 X139.365 Y81.899 E.01885
G1 X139.914 Y83.103 E.01885
M73 P1 R58
G1 X140.371 Y84.345 E.01887
G1 X140.603 Y85.113 E.01143
G1 X140.944 Y86.534 E.02082
G1 X141.152 Y87.841 E.01886
G1 X141.643 Y93.048 E.07454
G1 X142.097 Y98.194 E.07363
G1 X142.179 Y99.653 E.02082
G1 X142.748 Y106.069 E.09181
G1 X143.333 Y113.566 E.10717
G1 X143.61 Y117.511 E.05636
G1 X144.09 Y125.235 E.11029
G1 X144.272 Y128.868 E.05184
G1 X144.451 Y133.248 E.06248
G1 X144.51 Y135.509 E.03224
G1 X144.571 Y139.531 E.05732
G1 X144.579 Y141.626 E.02986
G1 X144.558 Y143.836 E.03149
G1 X144.498 Y146.095 E.03222
G1 X144.393 Y148.376 E.03254
G1 X144.24 Y150.677 E.03286
G1 X144.028 Y153.024 E.03358
G1 X143.873 Y154.398 E.01971
G1 X143.643 Y156.08 E.0242
G1 X143.413 Y157.487 E.02031
G1 X143.11 Y159.05 E.0227
G1 X142.722 Y160.718 E.0244
G1 X142.293 Y162.265 E.02288
G1 X141.835 Y163.664 E.02098
G1 X141.434 Y164.734 E.01629
G1 X140.967 Y165.84 E.0171
G1 X140.4 Y167.02 E.01867
G1 X139.762 Y168.188 E.01896
G1 X139.146 Y169.182 E.01667
G1 X138.514 Y170.101 E.01589
G1 X137.896 Y170.905 E.01445
G1 X137.323 Y171.581 E.01264
G1 X136.416 Y172.546 E.01887
G1 X135.211 Y173.643 E.02322
G1 X134.408 Y174.287 E.01466
G1 X133.327 Y175.05 E.01886
G1 X131.914 Y175.881 E.02337
G1 X130.546 Y176.545 E.02167
G1 X129.275 Y177.041 E.01945
G1 X128.011 Y177.433 E.01885
G1 X126.722 Y177.73 E.01885
G1 X125.539 Y177.916 E.01707
G1 X124.221 Y178.04 E.01887
G1 X122.898 Y178.065 E.01887
G1 X122.02 Y178.027 E.01252
G1 X120.703 Y177.896 E.01887
G1 X119.383 Y177.664 E.01909
G1 X118.101 Y177.345 E.01883
G1 X116.253 Y176.701 E.02789
G1 X115.047 Y176.159 E.01883
G1 X113.884 Y175.529 E.01887
G1 X113.131 Y175.058 E.01265
G1 X112.051 Y174.293 E.01885
G1 X110.67 Y173.118 E.02585
G1 X109.736 Y172.182 E.01884
G1 X108.874 Y171.179 E.01885
G1 X107.95 Y169.934 E.02209
G1 X107.449 Y169.148 E.01329
G1 X106.791 Y167.998 E.01889
G1 X106.252 Y166.874 E.01776
G1 X105.811 Y165.793 E.01664
G1 X105.497 Y164.903 E.01345
G1 X105.214 Y163.978 E.01378
G1 X104.945 Y162.949 E.01517
G1 X104.71 Y161.877 E.01563
G1 X104.527 Y160.873 E.01455
G1 X104.311 Y159.342 E.02204
G1 X104.138 Y157.53 E.02594
G1 X104.048 Y156.156 E.01961
G1 X103.946 Y153.398 E.03934
G1 X103.92 Y151.123 E.03242
G1 X103.934 Y149.072 E.02923
G1 X103.966 Y146.909 E.03083
G1 X104.089 Y142.834 E.0581
G1 X104.695 Y129.174 E.19487
G1 X104.764 Y128.323 E.01217
G1 X105.125 Y118.124 E.14543
G1 X105.216 Y114.546 E.05101
G1 X105.318 Y107.356 E.10249
G1 X105.32 Y103.773 E.05106
G1 X105.299 Y99.665 E.05854
G1 X105.105 Y90.901 E.12494
G1 X105.113 Y89.711 E.01695
G1 X105.228 Y88.13 E.02259
G1 X105.414 Y86.82 E.01886
G1 X105.697 Y85.527 E.01887
G1 X105.926 Y84.718 E.01198
G1 X106.356 Y83.465 E.01888
G1 X106.877 Y82.25 E.01885
G1 X107.487 Y81.079 E.01883
G1 X108.541 Y79.448 E.02766
G1 X108.841 Y79.642 F30000
G1 F3000
G1 X108.851 Y79.626 E.00027
G1 X109.73 Y78.5 E.02036
G1 X110.605 Y77.545 E.01846
G1 X111.549 Y76.658 E.01847
G1 X112.566 Y75.837 E.01862
G1 X113.315 Y75.307 E.01308
G1 X114.412 Y74.621 E.01844
G1 X115.559 Y74.018 E.01847
G1 X116.755 Y73.499 E.01858
G1 X117.979 Y73.074 E.01847
G1 X119.227 Y72.743 E.01839
G1 X120.191 Y72.554 E.01401
G1 X121.68 Y72.355 E.0214
G1 X122.972 Y72.286 E.01845
G1 X124.268 Y72.314 E.01847
G1 X125.558 Y72.439 E.01847
G1 X126.836 Y72.661 E.01849
G1 X127.928 Y72.929 E.01602
G1 X129.169 Y73.317 E.01852
G1 X130.373 Y73.796 E.01847
G1 X131.538 Y74.364 E.01847
G1 X132.654 Y75.015 E.01842
G1 X133.306 Y75.449 E.01116
G1 X134.454 Y76.312 E.02046
G1 X135.425 Y77.169 E.01846
G1 X136.33 Y78.097 E.01847
G1 X137.165 Y79.092 E.01852
G1 X137.713 Y79.837 E.01318
G1 X138.423 Y80.928 E.01855
G1 X139.047 Y82.063 E.01847
G1 X139.584 Y83.243 E.01847
G1 X140.031 Y84.455 E.01842
G1 X140.257 Y85.204 E.01114
G1 X140.593 Y86.6 E.02046
G1 X140.797 Y87.882 E.01851
G1 X141.288 Y93.08 E.07441
G1 X141.741 Y98.218 E.07352
G1 X141.824 Y99.686 E.02095
G1 X142.393 Y106.099 E.09176
G1 X142.977 Y113.592 E.10711
G1 X143.253 Y117.534 E.05632
G1 X143.734 Y125.255 E.11026
G1 X143.916 Y128.884 E.05178
G1 X144.094 Y133.259 E.0624
G1 X144.153 Y135.517 E.03219
G1 X144.214 Y139.534 E.05725
G1 X144.222 Y141.626 E.02982
G1 X144.201 Y143.828 E.03139
G1 X144.141 Y146.084 E.03215
G1 X144.037 Y148.357 E.03244
G1 X143.884 Y150.65 E.03275
G1 X143.673 Y152.986 E.03343
G1 X143.518 Y154.355 E.01963
G1 X143.289 Y156.028 E.02407
G1 X143.061 Y157.426 E.02018
G1 X142.762 Y158.974 E.02247
G1 X142.376 Y160.627 E.0242
G1 X141.951 Y162.159 E.02265
G1 X141.499 Y163.543 E.02076
G1 X141.103 Y164.6 E.01608
G1 X140.64 Y165.695 E.01694
G1 X140.081 Y166.86 E.01842
G1 X139.455 Y168.006 E.01861
G1 X138.849 Y168.985 E.01641
G1 X138.227 Y169.888 E.01563
G1 X137.616 Y170.682 E.01428
G1 X137.054 Y171.345 E.01239
G1 X136.162 Y172.295 E.01857
G1 X134.981 Y173.369 E.02276
G1 X134.19 Y174.003 E.01444
G1 X133.13 Y174.752 E.01851
G1 X131.749 Y175.563 E.02283
G1 X130.399 Y176.219 E.02139
G1 X129.16 Y176.702 E.01895
G1 X127.914 Y177.089 E.0186
G1 X126.658 Y177.378 E.01837
G1 X125.491 Y177.561 E.01683
G1 X124.197 Y177.683 E.01853
G1 X122.899 Y177.708 E.01851
G1 X122.043 Y177.671 E.01221
G1 X120.747 Y177.542 E.01855
G1 X119.461 Y177.315 E.01862
G1 X118.208 Y177.004 E.0184
G1 X116.381 Y176.367 E.02757
G1 X115.202 Y175.837 E.01842
G1 X114.067 Y175.222 E.01841
G1 X113.327 Y174.759 E.01244
G1 X112.275 Y174.013 E.01837
G1 X110.909 Y172.852 E.02554
G1 X110.001 Y171.943 E.01832
G1 X109.156 Y170.959 E.01849
G1 X108.242 Y169.729 E.02183
G1 X107.754 Y168.961 E.01297
G1 X107.106 Y167.828 E.0186
G1 X106.58 Y166.732 E.01732
G1 X106.146 Y165.668 E.01637
G1 X105.835 Y164.789 E.01329
G1 X105.557 Y163.879 E.01356
G1 X105.292 Y162.863 E.01496
G1 X105.06 Y161.805 E.01544
G1 X104.88 Y160.814 E.01436
G1 X104.665 Y159.297 E.02183
G1 X104.494 Y157.502 E.02569
G1 X104.405 Y156.14 E.01947
G1 X104.303 Y153.388 E.03924
G1 X104.277 Y151.124 E.03227
G1 X104.291 Y149.075 E.02919
G1 X104.323 Y146.916 E.03078
G1 X104.446 Y142.847 E.05803
G1 X105.051 Y129.198 E.1947
G1 X105.121 Y128.333 E.01238
G1 X105.481 Y118.138 E.14539
G1 X105.573 Y114.551 E.05114
G1 X105.675 Y107.362 E.10247
G1 X105.677 Y103.771 E.05118
G1 X105.656 Y99.656 E.05864
G1 X105.462 Y90.9 E.12483
G1 X105.47 Y89.729 E.01669
G1 X105.584 Y88.165 E.02235
G1 X105.766 Y86.879 E.0185
G1 X106.044 Y85.611 E.01851
G1 X106.268 Y84.822 E.01168
G1 X106.688 Y83.598 E.01845
G1 X107.199 Y82.407 E.01847
G1 X107.799 Y81.254 E.01853
G1 X108.819 Y79.676 E.02678
G1 X109.119 Y79.87 F30000
G1 F3000
G1 X109.14 Y79.837 E.00055
G1 X110.001 Y78.734 E.01994
G1 X110.857 Y77.799 E.01807
G1 X111.787 Y76.925 E.0182
G1 X112.784 Y76.12 E.01825
G1 X113.516 Y75.603 E.01277
G1 X114.587 Y74.933 E.018
G1 X115.71 Y74.342 E.01809
G1 X116.881 Y73.834 E.0182
G1 X118.088 Y73.415 E.0182
G1 X119.304 Y73.092 E.01793
G1 X120.246 Y72.907 E.01369
G1 X121.708 Y72.711 E.02103
G1 X122.974 Y72.643 E.01806
G1 X124.243 Y72.671 E.01809
G1 X125.506 Y72.793 E.01809
G1 X126.76 Y73.01 E.01813
G1 X127.835 Y73.274 E.01579
G1 X129.053 Y73.656 E.01818
G1 X130.232 Y74.125 E.01809
G1 X131.373 Y74.681 E.01809
G1 X132.462 Y75.316 E.01798
G1 X133.097 Y75.739 E.01087
G1 X134.224 Y76.587 E.0201
G1 X135.175 Y77.425 E.01807
G1 X136.062 Y78.334 E.01809
G1 X136.882 Y79.31 E.01818
G1 X137.421 Y80.043 E.01296
G1 X138.119 Y81.115 E.01823
G1 X138.729 Y82.227 E.01809
G1 X139.255 Y83.382 E.01809
G1 X139.691 Y84.566 E.01798
G1 X139.911 Y85.294 E.01084
G1 X140.241 Y86.666 E.0201
G1 X140.442 Y87.924 E.01816
G1 X140.932 Y93.112 E.07427
G1 X141.384 Y98.242 E.0734
G1 X141.468 Y99.719 E.02108
G1 X142.037 Y106.13 E.09172
G1 X142.621 Y113.618 E.10704
G1 X142.897 Y117.557 E.05628
G1 X143.377 Y125.276 E.11022
G1 X143.559 Y128.901 E.05173
G1 X143.737 Y133.27 E.06232
G1 X143.796 Y135.525 E.03215
G1 X143.856 Y139.537 E.05718
G1 X143.865 Y141.626 E.02978
G1 X143.844 Y143.821 E.03129
G1 X143.784 Y146.072 E.03209
G1 X143.68 Y148.338 E.03234
G1 X143.528 Y150.623 E.03264
G1 X143.318 Y152.949 E.03328
G1 X143.164 Y154.312 E.01955
G1 X142.936 Y155.977 E.02395
G1 X142.709 Y157.364 E.02004
G1 X142.413 Y158.897 E.02225
G1 X142.03 Y160.537 E.02399
G1 X141.61 Y162.054 E.02243
G1 X141.163 Y163.423 E.02053
G1 X140.772 Y164.466 E.01587
G1 X140.313 Y165.55 E.01679
G1 X139.762 Y166.7 E.01817
G1 X139.148 Y167.823 E.01825
G1 X138.551 Y168.787 E.01615
G1 X137.939 Y169.676 E.01537
G1 X137.337 Y170.46 E.0141
G1 X136.786 Y171.109 E.01214
G1 X135.908 Y172.043 E.01826
G1 X134.752 Y173.095 E.02229
G1 X133.973 Y173.719 E.01422
G1 X132.932 Y174.454 E.01815
G1 X131.584 Y175.246 E.02229
G1 X130.252 Y175.893 E.0211
G1 X129.046 Y176.363 E.01845
G1 X127.817 Y176.745 E.01834
G1 X126.594 Y177.027 E.01789
G1 X125.444 Y177.207 E.01659
G1 X124.173 Y177.326 E.01819
G1 X122.9 Y177.35 E.01815
G1 X122.065 Y177.314 E.01191
G1 X120.792 Y177.187 E.01823
G1 X119.539 Y176.966 E.01814
G1 X118.314 Y176.663 E.01797
G1 X116.509 Y176.033 E.02725
G1 X115.357 Y175.515 E.018
G1 X114.249 Y174.915 E.01796
G1 X113.522 Y174.46 E.01223
G1 X112.498 Y173.734 E.01789
G1 X111.148 Y172.587 E.02524
G1 X110.26 Y171.697 E.01792
G1 X109.437 Y170.739 E.018
G1 X108.535 Y169.523 E.02158
G1 X108.058 Y168.774 E.01265
G1 X107.42 Y167.658 E.01832
G1 X106.908 Y166.59 E.01689
G1 X106.481 Y165.544 E.01611
G1 X106.174 Y164.675 E.01313
G1 X105.9 Y163.779 E.01335
G1 X105.639 Y162.778 E.01475
G1 X105.41 Y161.733 E.01525
G1 X105.232 Y160.755 E.01418
G1 X105.02 Y159.253 E.02162
G1 X104.85 Y157.475 E.02545
G1 X104.761 Y156.123 E.01932
G1 X104.66 Y153.378 E.03915
G1 X104.634 Y151.124 E.03213
G1 X104.648 Y149.079 E.02914
G1 X104.68 Y146.923 E.03072
G1 X104.803 Y142.859 E.05795
G1 X105.408 Y129.223 E.19453
G1 X105.478 Y128.343 E.01258
G1 X105.838 Y118.151 E.14535
G1 X105.93 Y114.555 E.05126
G1 X106.032 Y107.367 E.10245
G1 X106.034 Y103.768 E.05129
G1 X106.012 Y99.647 E.05873
G1 X105.819 Y90.898 E.12472
G1 X105.827 Y89.747 E.01642
G1 X105.94 Y88.199 E.02211
G1 X106.119 Y86.939 E.01814
G1 X106.391 Y85.695 E.01816
G1 X106.61 Y84.926 E.01138
G1 X107.02 Y83.73 E.01802
G1 X107.52 Y82.564 E.01809
G1 X108.111 Y81.43 E.01822
G1 X109.097 Y79.903 E.0259
G1 X109.397 Y80.097 F30000
G1 F3000
G1 X109.428 Y80.049 E.00082
G1 X110.271 Y78.969 E.01952
G1 X111.108 Y78.053 E.01768
G1 X112.025 Y77.192 E.01793
G1 X113.002 Y76.403 E.01789
G1 X113.716 Y75.899 E.01246
G1 X114.761 Y75.245 E.01757
G1 X115.861 Y74.666 E.01771
G1 X117.015 Y74.165 E.01793
G1 X118.196 Y73.755 E.01782
G1 X119.381 Y73.441 E.01747
G1 X120.301 Y73.26 E.01337
G1 X121.738 Y73.068 E.02066
G1 X122.976 Y73.001 E.01767
G1 X124.218 Y73.027 E.01771
G1 X125.454 Y73.147 E.01771
G1 X126.683 Y73.359 E.01777
G1 X127.743 Y73.619 E.01555
G1 X128.937 Y73.994 E.01784
G1 X130.091 Y74.453 E.01771
G1 X131.208 Y74.998 E.01771
G1 X132.271 Y75.618 E.01753
G1 X132.888 Y76.029 E.01057
G1 X133.995 Y76.861 E.01974
G1 X134.926 Y77.682 E.01768
G1 X135.794 Y78.57 E.01771
G1 X136.599 Y79.529 E.01783
G1 X137.129 Y80.249 E.01275
G1 X137.814 Y81.302 E.0179
G1 X138.412 Y82.391 E.01771
G1 X138.926 Y83.522 E.01771
G1 X139.351 Y84.676 E.01753
G1 X139.566 Y85.385 E.01055
G1 X139.89 Y86.731 E.01974
G1 X140.087 Y87.965 E.01781
G1 X140.576 Y93.144 E.07414
G1 X141.028 Y98.266 E.07329
G1 X141.113 Y99.752 E.02121
G1 X141.681 Y106.16 E.09168
G1 X142.265 Y113.644 E.10698
G1 X142.541 Y117.58 E.05624
G1 X143.021 Y125.297 E.11018
G1 X143.202 Y128.918 E.05167
G1 X143.38 Y133.281 E.06224
G1 X143.439 Y135.533 E.0321
G1 X143.499 Y139.539 E.0571
G1 X143.508 Y141.626 E.02973
G1 X143.487 Y143.814 E.03118
G1 X143.427 Y146.06 E.03202
G1 X143.324 Y148.319 E.03224
G1 X143.172 Y150.597 E.03253
G1 X142.962 Y152.912 E.03313
G1 X142.809 Y154.269 E.01947
G1 X142.583 Y155.925 E.02382
G1 X142.357 Y157.303 E.0199
G1 X142.064 Y158.821 E.02203
G1 X141.685 Y160.446 E.02379
G1 X141.269 Y161.948 E.02221
G1 X140.826 Y163.303 E.02031
G1 X140.441 Y164.331 E.01565
G1 X139.986 Y165.406 E.01663
G1 X139.442 Y166.539 E.01792
G1 X138.84 Y167.641 E.0179
G1 X138.253 Y168.59 E.0159
G1 X137.652 Y169.463 E.01511
G1 X137.057 Y170.238 E.01392
G1 X136.518 Y170.874 E.01188
G1 X135.655 Y171.791 E.01795
G1 X134.522 Y172.821 E.02183
G1 X133.755 Y173.436 E.014
G1 X132.735 Y174.156 E.0178
G1 X131.418 Y174.929 E.02176
G1 X130.105 Y175.568 E.02082
G1 X128.924 Y176.027 E.01805
G1 X127.72 Y176.401 E.01797
G1 X126.53 Y176.675 E.01741
G1 X125.396 Y176.853 E.01636
G1 X124.149 Y176.97 E.01785
G1 X122.901 Y176.993 E.01779
G1 X122.087 Y176.958 E.0116
G1 X120.837 Y176.832 E.01791
G1 X119.616 Y176.617 E.01767
G1 X118.421 Y176.321 E.01754
G1 X116.637 Y175.699 E.02693
G1 X115.512 Y175.193 E.01758
G1 X114.432 Y174.607 E.01751
G1 X113.718 Y174.16 E.01201
G1 X112.721 Y173.454 E.01741
G1 X111.388 Y172.321 E.02494
G1 X110.52 Y171.451 E.01752
G1 X109.719 Y170.518 E.01752
G1 X108.827 Y169.317 E.02132
G1 X108.363 Y168.587 E.01232
G1 X107.735 Y167.489 E.01803
G1 X107.236 Y166.448 E.01645
G1 X106.816 Y165.419 E.01584
G1 X106.513 Y164.561 E.01297
G1 X106.243 Y163.68 E.01313
G1 X105.986 Y162.693 E.01453
G1 X105.76 Y161.661 E.01505
G1 X105.584 Y160.695 E.01399
G1 X105.374 Y159.208 E.0214
G1 X105.206 Y157.448 E.0252
G1 X105.118 Y156.106 E.01917
G1 X105.017 Y153.368 E.03905
G1 X104.991 Y151.124 E.03198
G1 X105.005 Y149.082 E.0291
G1 X105.037 Y146.931 E.03067
G1 X105.16 Y142.872 E.05787
G1 X105.764 Y129.247 E.19437
G1 X105.835 Y128.353 E.01278
G1 X106.195 Y118.164 E.14531
G1 X106.287 Y114.559 E.05139
G1 X106.389 Y107.373 E.10243
G1 X106.391 Y103.766 E.05141
G1 X106.369 Y99.639 E.05882
G1 X106.176 Y90.897 E.12461
G1 X106.184 Y89.764 E.01615
G1 X106.296 Y88.234 E.02187
G1 X106.471 Y86.998 E.01778
G1 X106.739 Y85.778 E.0178
G1 X106.951 Y85.03 E.01109
G1 X107.352 Y83.862 E.0176
G1 X107.841 Y82.72 E.0177
G1 X108.423 Y81.605 E.01792
G1 X109.375 Y80.13 E.02502
G1 X109.675 Y80.324 F30000
G1 F3000
G1 X109.717 Y80.26 E.0011
